X:35
T:The Moon Over the Mountain
R:jig
C:Brenda Stubbert
O:Cape Breton Island
S:http://www.cranfordpub.com
Z:psc, (re-formatted,updated 9/19/04)
N:http://www.cranfordpub.com/stubbert
H:                                                        copyrights Stubbert Music, SOCAN
L:1/8
Q:300
M:6/8
K:A
cB|A2 E FGA|ECA, A,CE|AGA cBA|BGE EFG|
A2 E FGA|ECA, Eaf|ecA EFG|A3 A:|
|:cd|ecA Ace|fdf eaf|ecA AGA|1B3 Bcd|
ecA Ace|fdf eaf|ecA EFG|A3 A:|
[2B3 BcB|A2 E FGA|ECA, Eaf|ecA EFG|A3 A|]
